src/assets/img/home.svg

<?xml version="1.0" encoding="UTF-8"?>
<svg width="18px" height="16px" viewBox="0 0 18 16" version="1.1" xmlns="http://www.w3.org/2000/svg" xmlns:xlink="http://www.w3.org/1999/xlink">
    <!-- Generator: Sketch 41.2 (35397) - http://www.bohemiancoding.com/sketch -->
    <title>Icons/Home</title>
    <desc>Created with Sketch.</desc>
    <defs></defs>
    <g id="Symbols" stroke="none" stroke-width="1" fill="none" fill-rule="evenodd">
        <path d="M14.0002607,14 L4.00026065,14 L4.00026065,6.156 L9.00026065,2.267 L14.0002607,6.156 L14.0002607,14 Z M17.6142607,6.433 L9.61426065,0.21 C9.25326065,-0.07 8.74726065,-0.07 8.38626065,0.21 L0.386260654,6.433 C-0.049739346,6.772 -0.128739346,7.4 0.211260654,7.836 C0.550260654,8.272 1.17826065,8.352 1.61426065,8.012 L2.00026065,7.712 L2.00026065,15 C2.00026065,15.552 2.44726065,16 3.00026065,16 L15.0002607,16 C15.5532607,16 16.0002607,15.552 16.0002607,15 L16.0002607,7.712 L16.3862607,8.012 C16.5682607,8.153 16.7852607,8.222 16.9992607,8.222 C17.2972607,8.222 17.5922607,8.089 17.7892607,7.836 C18.1292607,7.4 18.0502607,6.772 17.6142607,6.433 L17.6142607,6.433 Z" id="Icons/Home" fill="#FFFFFF"></path>
    </g>
</svg>

<svg width="18" height="16" viewBox="0 0 18 16" xmlns="http://www.w3.org/2000/svg"><title>Icons/Home</title><path d="M14 14H4V6.156l5-3.89 5 3.89V14zm3.614-7.567l-8-6.223c-.36-.28-.867-.28-1.228 0l-8 6.223C-.05 6.773-.13 7.4.21 7.836c.34.436.968.516 1.404.176l.386-.3V15c0 .552.447 1 1 1h12c.553 0 1-.448 1-1V7.712l.386.3c.182.14.4.21.613.21.297 0 .592-.133.79-.386.34-.436.26-1.064-.176-1.403z" fill="#FFF" fill-rule="evenodd"/></svg>
